X: 0
T: A Cradle Carol
Z: Russian Folk Carol
Z: Copyright © 2004 by Douglas D. Anderson
Z: Released To The Public Domain
L: 1/4
M: 4/4
Q: 1/4=120
V: P1 name="Staff"
%%MIDI program 1 19
K: G
[V: P1]  G A B c | d e dz | d e dz | G A B c | d e dz | d e dz | A A A A | A2 A B | c d Bz | A A A A | A2 A B | c A G2|]
w: Long a- go and far a- way, far a- way, Fast a- sleep a ba- by lay, ba- by lay, O- ver head a song filled the qui- et night, O- ver head a star gave a love- ly light.

